X: 47
T: Akzâdeler Giyer Aman...
C: (Anonim)
O: Turkey
F: http://compmusic.upf.edu/node/140
N: huseyni--turku--aksak--akzadeler_giyer--rumeli
N: makam= huseyni
N: form= turku
N: usul= aksak = 9/8
M: 9/8
L: 1/16
K: C _2/4B ^3/4f  
Q: 1/4=204
%%MIDI tuningsystem comma53
g4 a4 g2f2 e4 d2 | d2 edc2 d2c2 B2A6  | \
w:  ARANAĞME  |   | 
g4 a4 g2f2 e4 d2 | d2 edc2 d2c2 d2e6  | 
w:   |   | 
g3f g2a2 g2f2 e4 d2 | g3=fe2 d2c2 d2c4B2  | \
w:   |   | 
A2G2 A2B2 c2e2 d4 c2 | 
w:   | 
B4c2 A2B2 G2A6  | g4 a4 g2f2 e4 d2 | \
w:   |  ARANAĞME  | 
d2 edc2 d2c2 B2A6  | g4 a4 g2f2 e4 d2 | 
w:   |   | 
d2 edc2 d2c2 d2e6  | g3f g2a2 g2f2 e4 d2 | \
w:   |   | 
g3=fe2 d2c2 d2c4B2  | 
w:   | 
A2G2 A2B2 c2e2 d4 c2 | B4c2 A2B2 G2A4d2  | \
w:   |   | 
e4 c2d2 e4 e6 | e3dc2 d2e4e6  | 
w:  *  Ak zâ de ler   |  gi *  *  yer_ a man   | 
d4 e2e2 e4 e4 d2 | e2 f2g2 a2g2 f2g2 e2d2  | \
w:  boy lu  da  bo yun  |  ca    | 
g3=f e2f2 e2d2 d6 | 
w:  Düğ *  *  me ler  *  ta  | 
d2 cdc2 d2e2 f2g2 e2d2  | d3c c2cB {c}B2A2 A6 | \
w:  kı *  *  *  yor_ a *  man   |  ger *  da na  *  *  va *  rın  | 
A3GF2 G2A4A6  | 
w:  ca   *  Düğ me ler  ta  | 
d2cd c2d2 e2f2 g2e2 d2 | d3cc2 cB{c}B2 A2A6  | \
w:  kı *  *  *  yor_ a *  man   |  ger *  da na  *  *  va *  rın  | 
A6g2 f2g2 a3g fg | 
w:  ca   SAZ  | 
a4f2 g2a4a6  | g3f g2a2 g2f2 e6 | d4e2 e2e4e4d2  | \
w:  *  Na sıl  sab re  |  de *  *  yim_ a *  man   |  ta  sa bah_ o lun  | 
e2f2 g2a2 g2f2 g2e2 d2 | 
w:  ca    | 
g3=fe2 f2e2 d2d6  | d2cd c2d2 e2f2 g2e2 d2 | \
w:  İş *  *  te  gi *  di  |  yo *  *  *  rum_ a *  man   | 
d2 dcc2 B2{c}B2 A2A6  | 
w:  şu ra *  da  *  *  nem  *  kal  | 
A3G F2G2 A4 A6 | d2 cdc2 d2e2 f2g2 e2d2  | \
w:  dı   *  U çur dum  şa  |  hi *  *  *  ni  el *  den   | 
d2c2 c2B2 B2A2 A6 | 
w:  at *  ma *  cam  *  kal  | 
A18  | g4 a4 g2f2 e4 d2 | d2 edc2 d2c2 B2A6  | \
w:  dı    |  ARANAĞME  |   | 
g4 a4 g2f2 e4 d2 | 
w:   | 
d2 edc2 d2c2 d2e6  | g3f g2a2 g2f2 e4 d2 | \
w:   |   | 
g3=fe2 d2c2 d2c4B2  | 
w:   | 
A2G2 A2B2 c2e2 d4 c2 | B4c2 A2B2 G2A6  | \
w:   |   | 
g4 a4 g2f2 e4 d2 | d2 edc2 d2c2 B2A6  | 
w:  ARANAĞME  |   | 
g4 a4 g2f2 e4 d2 | d2 edc2 d2c2 d2e6  | \
w:   |   | 
g3f g2a2 g2f2 e4 d2 | 
w:   | 
g3=fe2 d2c2 d2c4B2  | A2G2 A2B2 c2e2 d4 c2 | \
w:   |   | 
B4c2 A2B2 G2A4d2  | 
w:   | 
e4 c2d2 e4 e6 | e3dc2 d2e4e6  | d4 e2e2 e4 e4 d2 | \
w:  *  Ak zâ de ler   |  gi *  *  yer_ a man   |  boy lu  da  bo yun  | 
e2 f2g2 a2g2 f2g2 e2d2  | 
w:  ca    | 
g3=f e2f2 e2d2 d6 | d2 cdc2 d2e2 f2g2 e2d2  | \
w:  Düğ *  *  me ler  *  ta  |  kı *  *  *  yor_ a *  man   | 
d3c c2cB {c}B2A2 A6 | 
w:  ger *  da na  *  *  va *  rın  | 
A3GF2 G2A4A6  | d2cd c2d2 e2f2 g2e2 d2 | \
w:  ca   *  Düğ me ler  ta  |  kı *  *  *  yor_ a *  man   | 
d3cc2 cB{c}B2 A2A6  | 
w:  ger *  da na  *  *  va *  rın  | 
A6g2 f2g2 a3g fg | a4f2 g2a4a6  | g3f g2a2 g2f2 e6 | \
w:  ca   SAZ  |  *  Na sıl  sab re  |  de *  *  yim_ a *  man   | 
d4e2 e2e4e4d2  | 
w:  ta  sa bah_ o lun  | 
e2f2 g2a2 g2f2 g2e2 d2 | g3=fe2 f2e2 d2d6  | \
w:  ca    |  İş *  *  te  gi *  di  | 
d2cd c2d2 e2f2 g2e2 d2 | 
w:  yo *  *  *  rum_ a *  man   | 
d2 dcc2 B2{c}B2 A2A6  | A3G F2G2 A4 A6 | \
w:  şu ra *  da  *  *  nem  *  kal  |  dı   *  U çur dum  şa  | 
d2 cdc2 d2e2 f2g2 e2d2  | 
w:  hi *  *  *  ni  el *  den   | 
d2c2 c2B2 B2A2 A6 | A18  | |


